!!!!SEGMENT: pl-kozmzk--mzk-m-280--002_gizycka-zamoyska-ludmila--trois-improvisations-chansonnette.krn
!!!cenid: 18xx:3049
!!!COM: Giżycka-Zamoyska, Ludmiła
!!!COM-rismID: pe30110123
!!!CDT: 1829-1889/09/15
!!!CNT:
!!!GTL: Trois Improvisations
!!!OTL: Chansonnette
!!!PDT:
!!!AGN: Secular; Improvization
!!!SMS-siglum: PL-KOZmzk
!!!SMS-shelfmark: mzk/m/280
!!!SMS-shelfwork: 002 G
!!!SMS-variant:
!!!SMS-altvar:
!!!NIFC-rismSourceID: 1001099002
!!!NIFC-islandoraID: pl-kozmzk:5612
!!!URL-pdf-islandora: https://repozytorium.nifc.pl/islandora/object/pl-kozmzk%3A5612/datastream/PDF/view
!!!URL-scan: https://polish.musicsources.pl/pl/lokalizacje/galeria/druki-muzyczne/7521 @EN{Scan on Polish Music Sources Website} @PL{Skany w portalu Dziedzictwo Muzyki Polskiej w otwartym dostępie}
!!!ONB-nifc:
!!!AIN: 2 piano 1 vox
!!!key: c
!!!OMD: Andantino.
!!!OMD-mod: Andantino
**kern	**kern	**dynam	**kern	**text	**dynam
*part3	*part2	*part2	*part1	*part1	*part1
*staff3	*staff2	*	*staff1	*staff1	*
*I"Piano.	*I"Piano.	*	*I"Chant.	*	*
*mI"Pianoforte	*mI"Pianoforte	*	*mI"Voce	*	*
*I'pf	*I'pf	*	*I'V	*	*
*Ipiano	*Ipiano	*	*Ivox	*	*
*ICklav	*ICklav	*	*ICvox	*	*
*IGacmp	*IGacmp	*	*IGsolo	*	*
*clefF4	*clefG2	*	*clefG2	*	*
*k[b-e-a-]	*k[b-e-a-]	*	*k[b-e-a-]	*	*
*c:	*c:	*	*c:	*	*
*M3/4	*M3/4	*	*M3/4	*	*
=1	=1	=1	=1	=1	=1
*^	*^	*	*	*	*
*	*	*	*^	*	*	*	*
2.GG/	2CC\	4r	4rddyyyy	4rgyyyy	p	2.r	.	.
.	.	(<16qqG/LL	.	.	.	.	.	.
.	.	16qqc/	.	.	.	.	.	.
.	.	16qqe-/JJ	.	.	.	.	.	.
.	.	2g/)	2g\	4rgyyyy	.	.	.	.
.	4E-\	.	.	4e- 4c 4G\	.	.	.	.
=2	=2	=2	=2	=2	=2	=2	=2	=2
!	!	!	!LO:SIC:s=4ryyyy:v	!	!	!	!	!
2.GG/	2CC\	4ryy	4r	4rgyyyy	.	2.r	.	.
.	.	(<16qqG/LL	.	.	.	.	.	.
.	.	16qqc/	.	.	.	.	.	.
.	.	16qqe-/JJ	.	.	.	.	.	.
.	.	2g/)	2g\	4rgyyyy	.	.	.	.
.	4E-\	.	.	4e- 4c 4G\	.	.	.	.
=3	=3	=3	=3	=3	=3	=3	=3	=3
*	*	*	*	*	*	*Xbrackettup	*	*
!	!	!	!	!	!	!LO:TUP:a:problem:klamra łukowa	!	!LO:DY:a
!	!	!	!LO:SIC:s=4ryyyy:v	!	!	!	!	!
2.GG/	2CC\	4ryy	4r	4rgyyyy	p	12g/	Ah!	p
!	!	!	!	!	!	!	!LO:MO:mod=Dans	!
.	.	.	.	.	.	12c/	dans	.
.	.	.	.	.	.	12d/	les	.
.	.	(<16qqG/LL	.	.	.	.	.	.
.	.	16qqc/	.	.	.	.	.	.
.	.	16qqe-/JJ	.	.	.	.	.	.
.	.	2g/)	2g\	4rgyyyy	.	4e-/	bons	.
.	4D\	.	.	4f 4Bn 4G\	.	4d/	vieux	.
=4	=4	=4	=4	=4	=4	=4	=4	=4
!	!	!	!LO:SIC:s=4ryyyy:v	!	!	!	!	!
2.GG/	2CC\	4ryy	4r	4rgyyyy	.	2c/	tems,	.
.	.	(<16qqG/LL	.	.	.	.	.	.
.	.	16qqc/	.	.	.	.	.	.
.	.	16qqe-/JJ	.	.	.	.	.	.
.	.	2g/)	2g\	4rgyyyy	.	.	.	.
.	4E-\	.	.	4e- 4c 4G\	.	4r	.	.
!!linebreak:original
=5	=5	=5	=5	=5	=5	=5	=5	=5
!	!	!	!	!	!	!LO:TUP:a:problem:klamra łukowa	!	!
!	!	!	!LO:SIC:s=4ryyyy:v	!	!	!	!	!
2.BB-/	2BBB-\	4ryy	4r	4rgyyyy	.	12B-/	les	.
.	.	.	.	.	.	12c/	cha-	.
.	.	.	.	.	.	12d/	-leu-	.
.	.	(<16qqA-/LL	.	.	.	.	.	.
.	.	16qqB-/	.	.	.	.	.	.
.	.	16qqd/JJ	.	.	.	.	.	.
.	.	2a-/)	2a-\	4rgyyyy	.	4e-/	-reux	.
.	4D\	.	.	4d 4B- 4A-\	.	4f/	a-	.
=6	=6	=6	=6	=6	=6	=6	=6	=6
!	!	!	!LO:SIC:s=4ryyyy:v	!	!	!	!	!
2.BB-/	2EE-\	4ryy	4r	4rgyyyy	.	2g/	-mants	.
.	.	(<16qqG/LL	.	.	.	.	.	.
.	.	16qqB-/	.	.	.	.	.	.
.	.	16qqe-/JJ	.	.	.	.	.	.
.	.	2g/)	2g\	4rgyyyy	.	.	.	.
.	4E-\	.	.	4e- 4B- 4G\	.	4r	.	.
=7	=7	=7	=7	=7	=7	=7	=7	=7
!	!	!	!	!	!	!LO:TUP:a:problem:klamra łukowa	!	!
!	!	!	!LO:SIC:s=4ryyyy:v	!	!	!	!	!
2.GG/	2GGG\	4ryy	4r	4rgyyyy	.	12g/	n’é-	.
!	!	!	!	!	!	!	!LO:MO:mod=-touf-	!
.	.	.	.	.	.	12d/	-tou-	.
!	!	!	!	!	!	!	!LO:MO:mod=-faient	!
.	.	.	.	.	.	12e-/	-ffaient	.
.	.	(<16qqF/LL	.	.	.	.	.	.
.	.	16qqBn/	.	.	.	.	.	.
.	.	16qqd/JJ	.	.	.	.	.	.
.	.	2g/)	2g\	4rgyyyy	.	4f/	pas	.
!	!	!	!	!LO:SIC:s=4d 4Bny 4F\:v	!	!	!	!
.	4D\	.	.	4d 4Bn 4F\	.	4e-/	les	.
=8	=8	=8	=8	=8	=8	=8	=8	=8
!	!	!	!LO:SIC:s=4ryyyy:v	!	!	!	!	!
2.GG/	2CC\	4ryy	4r	4rgyyyy	.	2d/	flam-	.
.	.	(<16qqG/LL	.	.	.	.	.	.
.	.	16qqc/	.	.	.	.	.	.
.	.	16qqe-/JJ	.	.	.	.	.	.
.	.	2g/)	2g\	4rgyyyy	.	.	.	.
.	4E-\	.	.	4e- 4c 4G\	.	4c/	-mes,	.
=9	=9	=9	=9	=9	=9	=9	=9	=9
!	!	!	!	!	!	!LO:TUP:a:problem:klamra łukowa	!	!
!	!	!	!LO:SIC:s=4ryyyy:v	!	!	!	!	!
2.AA-/	2AAA-\	4ryy	4r	4rgyyyy	.	12e-/	qui	.
.	.	.	.	.	.	12d/	con-	.
.	.	.	.	.	.	12c/	-su-	.
.	.	(<16qqF#X/LL	.	.	.	.	.	.
.	.	16qqc/	.	.	.	.	.	.
!	!	!	!	!	!LO:MO:null:mod=.	!	!	!
.	.	16qqe-/JJ	.	.	<	.	.	.
!	!	!	!	!	!	!	!	!LO:HP:a
!	!	!	!	!	!LO:MO:null:mod=<	!	!	!
.	.	2f#X/)	2f#\	4rgyyyy	.	4Bn/	-maient	<
!	!	!	!	!LO:SIC:s=4e- 4c 4F#y\:v	!	!	!	!
.	4C\	.	.	4e- 4c 4F#X\	[	4c/	leur	[
*v	*v	*	*	*	*	*	*	*
!!linebreak:original
=10	=10	=10	=10	=10	=10	=10	=10
!	!	!LO:SIC:s=4ryyyy:v	!	!	!	!	!
[<4GG 4GGG/	4ryy	4rdd]	4rgyyyy	.	2g/	coeur	.
.	(<16qqBn/LL	.	.	.	.	.	.
.	16qqd/	.	.	.	.	.	.
.	16qqf/JJ	.	.	.	.	.	.
2Fn 2GG;</]	2bn;/)	2bn\	4rgyyyy	>	.	.	.
!	!	!	!LO:SIC:s=4f 4d 4Bny\:v	!	!	!	!
.	.	.	4f 4d 4Bn\	]	4r	.	.
=11	=11	=11	=11	=11	=11	=11	=11
*^	*	*	*	*	*	*	*
!	!	!	!	!	!	!LO:TUP:a:problem:klamra łukowa	!	!LO:DY:a
2GG/	2CC\	4r	4ryyyy	4rgyyyy	p	12g/	et	p
.	.	.	.	.	.	12c/	pour	.
.	.	.	.	.	.	12d/	com-	.
.	.	(<16qqG/LL	.	.	.	.	.	.
.	.	16qqc/	.	.	.	.	.	.
.	.	16qqen/JJ	.	.	.	.	.	.
.	.	2g/)	2g\	4rgyyyy	.	4en/	-plaire	.
4GG 4GGG/	4ryyyy	.	.	4f 4Bn 4G\	.	4d/	aux	.
*v	*v	*	*	*	*	*	*	*
=12	=12	=12	=12	=12	=12	=12	=12
!	!	!LO:SIC:s=4ryyyy:v	!	!	!	!	!
2AAn 2AAAn/	4ryy	4r	4rgyyyy	.	2c#X/	da-	.
.	(<16qqG/LL	.	.	.	.	.	.
.	16qqc#X/	.	.	.	.	.	.
.	16qqen/JJ	.	.	.	.	.	.
.	2an/)	2an\	4rgyyyy	.	.	.	.
!	!	!	!LO:SIC:s=4eny 4c#y 4G\:v	!	!	!	!
4C#X 4CC#X/	.	.	4en 4c#X 4G\	.	4en/	-mes	.
=13	=13	=13	=13	=13	=13	=13	=13
!	!	!	!	!	!LO:TUP:a:problem:klamra łukowa	!	!
2AAn 2DD/	4r	4ryyyy	4rgyyyy	.	12d/	chan-	.
.	.	.	.	.	12c#X/	-taient	.
.	.	.	.	.	12d/	a-	.
.	(<16qqAn/LL	.	.	.	.	.	.
.	16qqd/	.	.	.	.	.	.
.	16qqf/JJ	.	.	.	.	.	.
!	!	!	!	!	!	!	!LO:HP:a
.	2an/)	2an\	4rgyyyy	.	4f/	-vec	<
!	!	!	!LO:SIC:s=4g 4c#X 4Any\:v	!	!	!	!
4En 4EEn/	.	.	4g 4c#X 4An\	.	4en/	ar-	[
!!linebreak:original
=14	=14	=14	=14	=14	=14	=14	=14
!	!	!LO:SIC:s=4ryyyy:v	!	!	!	!	!
2D 2DD/	4ryy	4r	4rgyyyy	.	2an/	-deur:	.
.	(<16qqAn/LL	.	.	.	.	.	.
.	16qqd/	.	.	.	.	.	.
.	16qqf/JJ	.	.	.	.	.	.
.	2an/)	2an\	4rgyyyy	.	.	.	.
!	!	!	!LO:SIC:s=4f 4d 4Any\:v	!	!	!	!
4F 4FF/	.	.	4f 4d 4An\	.	4r	.	.
=15	=15	=15	=15	=15	=15	=15	=15
!	!	!	!	!	!LO:TUP:a:problem:klamra łukowa	!	!LO:DY:a
!	!	!LO:SIC:s=4ryyyy:v	!	!	!	!	!
2E- 2FF#X/	4ryy	4r	4rgyyyy	.	12an/	„A-	f
.	.	.	.	.	12g#X/	-hi!	.
!	!	!	!	!	!	!LO:MO:mod=Mes	!
.	.	.	.	.	12a/	mes	.
.	(<16qqAn/LL	.	.	.	.	.	.
.	16qqc/	.	.	.	.	.	.
.	16qqe-/JJ	.	.	.	.	.	.
.	2an/)	2an\	4rgyyyy	.	4bn\	Da-	.
!	!	!	!LO:SIC:s=4e- 4c 4Any\:v	!	!	!	!
4F#X\	.	.	4e- 4c 4An\	.	4cc\	-moi-	.
=16	=16	=16	=16	=16	=16	=16	=16
!	!	!LO:SIC:s=4ryyyy:v	!	!	!	!	!
(>2En 2GG/	4ryy	4r	4rgyyyy	.	2cc\	-se-	.
.	(<16qqG/LL	.	.	.	.	.	.
.	16qqc/	.	.	.	.	.	.
.	16qqen/JJ	.	.	.	.	.	.
.	2g/)	2g\	4rgyyyy	.	.	.	.
!	!	!	!LO:SIC:s=4eny 4c 4G\:v	!	!	!	!
4GG 4GGG/)	.	.	4en 4c 4G\	.	4g/	-les,	.
=17	=17	=17	=17	=17	=17	=17	=17
*^	*	*	*	*	*	*	*
!	!	!	!	!	!	!LO:TUP:a:problem:klamra łukowa	!	!
!	!	!	!LO:SIC:s=4ryyyy:v	!	!	!	!	!
2.AA-/	2AAA-\	4ryy	4r	4rgyyyy	.	12e-X/	vous	.
.	.	.	.	.	.	12d/	ê-	.
.	.	.	.	.	.	12c/	-tes	.
.	.	(<16qqF#X/LL	.	.	.	.	.	.
.	.	16qqc/	.	.	.	.	.	.
.	.	16qqe-/JJ	.	.	.	.	.	.
.	.	2f#X/)	2f#\	4rgyyyy	.	4Bn/	bel-	.
!	!	!	!	!LO:SIC:s=4e- 4c 4F#y\:v	!	!	!	!
.	4AA-\	.	.	4e- 4c 4F#X\	.	4c/	-les,	.
*v	*v	*	*	*	*	*	*	*
*	*v	*v	*v	*	*	*	*
=18	=18	=18	=18	=18	=18
[4GG 4GGG/	4r	ff	2an/	bel-	.
2Fn 2GG;</]	2bn: 2f: 2d: 2Bn;:/	.	.	.	.
.	.	.	4g;/	-les!”	.
!!pagebreak:original
=19	=19	=19	=19	=19	=19
*^	*^	*	*	*	*
*	*	*	*^	*	*	*	*
!	!	!	!	!	!	!LO:TUP:a:problem:klamra łukowa	!	!LO:DY:a
2.GG/	2CC\	4r	4rddyyyy	4rgyyyy	p	12g/	Au-	p
.	.	.	.	.	.	12c/	-jour-	.
.	.	.	.	.	.	12d/	-d’hui	.
.	.	(<16qqG/LL	.	.	.	.	.	.
.	.	16qqc/	.	.	.	.	.	.
.	.	16qqe-/JJ	.	.	.	.	.	.
.	.	2g/)	2g\	4rgyyyy	.	4e-/	en	.
.	4D\	.	.	4f 4Bn 4G\	.	4d/	trou-	.
=20	=20	=20	=20	=20	=20	=20	=20	=20
!	!	!	!LO:SIC:s=4ryyyy:v	!	!	!	!	!
2.GG/	2CC\	4ryy	4r	4rgyyyy	.	2c/	-vant	.
.	.	(<16qqG/LL	.	.	.	.	.	.
.	.	16qqc/	.	.	.	.	.	.
.	.	16qqe-/JJ	.	.	.	.	.	.
.	.	2g/)	2g\	4rgyyyy	.	.	.	.
.	4E-\	.	.	4e- 4c 4G\	.	4r	.	.
=21	=21	=21	=21	=21	=21	=21	=21	=21
!	!	!	!	!	!	!LO:TUP:a:problem:klamra łukowa	!	!
!	!	!	!LO:SIC:s=4ryyyy:v	!	!	!	!	!
2.BB-/	2BBB-\	4ryy	4r	4rgyyyy	.	12B-/	un	.
.	.	.	.	.	.	12c/	an-	.
.	.	.	.	.	.	12d/	-ge	.
.	.	(<16qqA-/LL	.	.	.	.	.	.
.	.	16qqB-/	.	.	.	.	.	.
.	.	16qqd/JJ	.	.	.	.	.	.
.	.	2a-/)	2a-\	4rgyyyy	.	4e-/	ra-	.
.	4D\	.	.	4d 4B- 4A-\	.	4f/	-vis-	.
=22	=22	=22	=22	=22	=22	=22	=22	=22
!	!	!	!LO:SIC:s=4ryyyy:v	!	!	!	!	!
2.BB-/	2EE-\	4ryy	4r	4rgyyyy	.	2g/	-sant,	.
.	.	(<16qqG/LL	.	.	.	.	.	.
.	.	16qqB-/	.	.	.	.	.	.
.	.	16qqe-/JJ	.	.	.	.	.	.
.	.	2g/)	2g\	4rgyyyy	.	.	.	.
.	4E-\	.	.	4e- 4B- 4G\	.	4r	.	.
!!linebreak:original
=23	=23	=23	=23	=23	=23	=23	=23	=23
!	!	!	!	!	!	!LO:TUP:a:problem:klamra łukowa	!	!
!	!	!	!LO:SIC:s=4ryyyy:v	!	!	!	!	!
2.GG/	2GGG\	4ryy	4r	4rgyyyy	.	12g/	j’ai	.
.	.	.	.	.	.	12d/	oub-	.
.	.	.	.	.	.	12e-/	-li-	.
.	.	(<16qqF/LL	.	.	.	.	.	.
.	.	16qqBn/	.	.	.	.	.	.
.	.	16qqd/JJ	.	.	.	.	.	.
.	.	2g/)	2g\	4rgyyyy	.	4f/	-é	.
!	!	!	!	!LO:SIC:s=4d 4Bny 4F\:v	!	!	!	!
.	4D\	.	.	4d 4Bn 4F\	.	4e-/	la	.
=24	=24	=24	=24	=24	=24	=24	=24	=24
!	!	!	!LO:SIC:s=4ryyyy:v	!	!	!	!	!
2.GG/	2CC\	4ryy	4r	4rgyyyy	.	2d/	ter-	.
.	.	(<16qqG/LL	.	.	.	.	.	.
.	.	16qqc/	.	.	.	.	.	.
.	.	16qqe-/JJ	.	.	.	.	.	.
.	.	2g/)	2g\	4rgyyyy	.	.	.	.
.	4E-\	.	.	4e- 4c 4G\	.	4c/	-re,	.
=25	=25	=25	=25	=25	=25	=25	=25	=25
!	!	!	!	!	!	!LO:TUP:a:problem:klamra łukowa	!	!
!	!	!	!LO:SIC:s=4ryyyy:v	!	!	!	!	!
2.AA-/	2AAA-\	4ryy	4r	4rgyyyy	.	12e-/	ses	.
.	.	.	.	.	.	12d/	lar-	.
.	.	.	.	.	.	12c/	-mes,	.
.	.	(<16qqF#X/LL	.	.	.	.	.	.
.	.	16qqc/	.	.	.	.	.	.
.	.	16qqe-/JJ	.	.	.	.	.	.
.	.	2f#X/)	2f#\	4rgyyyy	.	4Bn/	ses	.
!	!	!	!	!LO:SIC:s=4e- 4c 4F#y\:v	!	!	!	!
.	4C\	.	.	4e- 4c 4F#X\	.	4c/	mi-	.
*v	*v	*	*	*	*	*	*	*
*	*v	*v	*v	*	*	*	*
=26	=26	=26	=26	=26	=26
[<4GG 4GGG/	4r	.	2a-/	-sè-	.
2Fn 2GG;/]	2bn: 2f: 2d: 2Bn;:/	.	.	.	.
!	!	!	!	!LO:MO:mod=-res,	!
.	.	.	4g/	-res;	.
=27	=27	=27	=27	=27	=27
*^	*^	*	*	*	*
*	*	*	*^	*	*	*	*
!	!	!	!	!	!	!LO:TUP:a:problem:klamra łukowa	!	!LO:DY:a
2.GG/	2CC\	4r	4rddyyyy	4rgyyyy	pp	12g/	mais	pp
.	.	.	.	.	.	12c/	chut!	.
!	!	!	!	!	!	!	!LO:MO:mod=De	!
.	.	.	.	.	.	12d/	de	.
.	.	(<16qqG/LL	.	.	.	.	.	.
.	.	16qqc/	.	.	.	.	.	.
.	.	16qqen/JJ	.	.	.	.	.	.
.	.	2g/)	2g\	4rgyyyy	.	4en/	son	.
.	4GG 4GGG\	.	.	4f 4Bn 4G\	.	4d/	doux	.
*v	*v	*	*	*	*	*	*	*
!!linebreak:original
=28	=28	=28	=28	=28	=28	=28	=28
!	!	!LO:SIC:s=4ryyyy:v	!	!	!	!	!
2AAn 2AAAn/	4ryy	4r	4rgyyyy	.	2c#X/	nom,	.
.	(<16qqG/LL	.	.	.	.	.	.
.	16qqc#X/	.	.	.	.	.	.
.	16qqen/JJ	.	.	.	.	.	.
.	2an/)	2an\	4rgyyyy	.	.	.	.
!	!	!	!LO:SIC:s=4eny 4c#y 4G\:v	!	!	!	!
4C#X 4CC#X/	.	.	4en 4c#X 4G\	.	4r	.	.
=29	=29	=29	=29	=29	=29	=29	=29
!	!	!	!	!	!LO:TUP:a:problem:klamra łukowa	!	!
!	!	!LO:SIC:s=4ryyyy:v	!	!	!	!	!
2AAn 2DD/	4ryy	4r	4rgyyyy	.	12d/	re-	.
.	.	.	.	.	12c#X/	-gard,	.
.	.	.	.	.	12d/	sou-	.
.	(<16qqAn/LL	.	.	.	.	.	.
.	16qqd/	.	.	.	.	.	.
.	16qqf/JJ	.	.	.	.	.	.
.	2an/)	2an\	4rgyyyy	.	4f/	-ri-	.
!	!	!	!LO:SIC:s=4g 4c#X 4Any\:v	!	!	!	!
4En 4EEn/	.	.	4g 4c#X 4An\	.	4en/	-re,	.
=30	=30	=30	=30	=30	=30	=30	=30
!	!	!LO:SIC:s=4ryyyy:v	!	!	!	!	!
!	!	!	!	!	!	!LO:MO:mod=front...	!
2D 2FF/	4ryy	4r	4rgyyyy	.	2an/	front....	.
.	(<16qqAn/LL	.	.	.	.	.	.
.	16qqd/	.	.	.	.	.	.
.	16qqf/JJ	.	.	.	.	.	.
.	2an/)	2an\	4rgyyyy	.	.	.	.
!	!	!	!LO:SIC:s=4f 4d 4Any\:v	!	!	!	!
4F 4FF/	.	.	4f 4d 4An\	.	4r	.	.
=31	=31	=31	=31	=31	=31	=31	=31
!	!	!	!	!	!LO:TUP:a:problem:klamra łukowa	!	!
!	!	!LO:SIC:s=4ryyyy:v	!	!	!	!	!
2E- 2FF#X/	4ryy	4r	4rgyyyy	.	12an/	car	.
.	.	.	.	.	12g#X/	hé-	.
.	.	.	.	.	12a/	-las!	.
.	(<16qqF#X/LL	.	.	.	.	.	.
.	16qqc/	.	.	.	.	.	.
!	!	!	!	!LO:MO:null:mod=.	!	!	!
.	16qqe-/JJ	.	.	<	.	.	.
!	!	!	!	!	!	!	!LO:HP:a
!	!	!	!	!	!	!LO:MO:mod=Pour	!
!	!	!	!	!LO:MO:null:mod=<	!	!	!
.	2f#X/)	2f#\	4rgyyyy	.	4bn\	pour	<
4F#X\	.	.	4e- 4c 4An\	[	4cc\	lui	[
!!linebreak:original
=32	=32	=32	=32	=32	=32	=32	=32
!	!	!	!	!	!	!	!LO:FP:a
!	!	!LO:SIC:s=4ryyyy:v	!	!	!	!	!
2En [>2GG/	4ryy	4r	4rgyyyy	>	2cc\	plai-	>
.	(<16qqG/LL	.	.	.	.	.	.
.	16qqc/	.	.	.	.	.	.
.	16qqen/JJ	.	.	.	.	.	.
.	2g/)	2g\	4rgyyyy	.	.	.	]]
!	!	!	!LO:SIC:s=4eny 4c 4G\:v	!	!	!	!
4GG] 4GGG/	.	.	4en 4c 4G\	]	4g/	-re,	.
=33	=33	=33	=33	=33	=33	=33	=33
!	!	!	!	!	!LO:TUP:a:problem:klamra łukowa	!	!LO:DY:a
!	!	!LO:SIC:s=4ryyyy:v	!	!	!	!	!
2AA- 2AAA-/	4ryy	4r	4rgyyyy	.	12e-X/	il	p
.	.	.	.	.	12d/	faut	.
.	.	.	.	.	12c/	se	.
.	(<16qqF#X/LL	.	.	.	.	.	.
.	16qqc/	.	.	.	.	.	.
.	16qqe-X/JJ	.	.	.	.	.	.
.	2f#X/)	2f#\	4rgyyyy	.	4Bn/	tai-	.
!	!	!	!LO:SIC:s=4e- 4c 4F#y\:v	!	!	!	!
4AA-/	.	.	4e- 4c 4F#X\	.	4c/	-re,	.
*	*	*v	*v	*	*	*	*
=34	=34	=34	=34	=34	=34	=34
*^	*	*	*	*	*	*
!	!	!	!	!	!	!	!LO:DY:a
!	!	!LO:TUP:a:problem:klamra łukowa	!	!	!	!	!LO:DY:a
!	!	!	!	!LO:DY:t= :mod=%s	!	!	!
!	!	!	!	!LO:MO:mod=!LO&colon;DY&colon;ed=	!	!	!
!	!	!	!	!null	!	!	!
2G:: 2En::/	[>2GG 2GGG\	12en::/L	2c::\	p	2.g/	tai-	pp > ]]
!	!	!	!	!LO:MO:mod=!null:null	!	!	!
.	.	12d/	.	p	.	.	.
.	.	12c/J	.	.	.	.	.
.	.	2d\	.	.	.	.	.
4ryy	4Fn 4GG\]	.	4bn 4fn\	.	.	.	.
*v	*v	*	*	*	*	*	*
*	*v	*v	*	*	*	*
=35	=35	=35	=35	=35	=35
2G 2C\	2.cc 2.g 2.en/	.	4c/	-re.	.
.	.	.	4r	.	.
[4CC/	.	.	4r	.	.
=36	=36	=36	=36	=36	=36
*	*8va	*	*	*	*
2.En: 2.GG: 2.CC:/]	2.cccc: 2.ggg: 2.eeen: 2.ccc:\	.	2.r	.	.
*	*X8va	*	*	*	*
==	==	==	==	==	==
*-	*-	*-	*-	*-	*-
!!!system-decoration: s1{(s2,s3)}
!!!RDF**kern: > = above
!!!RDF**kern: < = below
!!!filter-modern: tie -s | humtr -p | sic -sq | shed -e "s/LO:DY:(a|b|rj)/LO:dy:$1/L" | shed -e "s/TX(.*):t=P:/tx$1:t=P:/LG" | modori -m | autostem -r | shed -e "s/yy//" | shed -k -e "s/\(y([^y])/($1/" | shed -e "s/-//B" | shed -e "s/^(\d+[\/\\]right)/$1yy/I; s/^(\d+[\/\\]left)/$1yy/I" | shed -e "s/^(X?)rep$/$1REP/I" | shed -k -e "s/[<>]//g" | shed -e "s/^custos:/Xcustos:/I" | shed -k -e "s/:TUP:/:tup:/L" | shed -k -e "s/r[a-gA-G]+/r/D" | rid -lid
!!!ENC: Katarzyna Serwa
!!!END: 2021-10-24
!!!ENC: Marcin Jachim
!!!END: 2021-09-09
!!!EED-modern: Antoni Szymański
!!!END-modern: 2022-08-12
!!!YEC: Copyright 2022 Narodowy Instytut Fryderyka Chopina (https://polishscores.org)
!!!YEM: Licence CC BY 4.0 (https://creativecommons.org/licenses/by/4.0)
